picto/funicular-railway-left-framed.svg

<svg class="color-immutable" width="30" height="30" viewBox="0 0 30 30" fill="none" xmlns="http://www.w3.org/2000/svg"><path d="M30 0H0V30H30V0Z" fill="#2D327D"/><path d="M25.5 3C26.325 3 27 3.675 27 4.5V25.5C27 26.325 26.325 27 25.5 27H4.5C3.675 27 3 26.325 3 25.5V4.5C3 3.675 3.675 3 4.5 3H25.5ZM25.5 2.625H4.5C3.46613 2.625 2.625 3.46613 2.625 4.5V25.5C2.625 26.5339 3.46613 27.375 4.5 27.375H25.5C26.5339 27.375 27.375 26.5339 27.375 25.5V4.5C27.375 3.46613 26.5339 2.625 25.5 2.625Z" fill="white"/><path d="M23.625 20.1448C23.8319 20.1448 23.9999 19.9765 23.9999 19.7695V11.0169C23.9999 10.6399 23.7442 10.3108 23.3789 10.2175L7.0288 6.04717C6.96213 6.03007 6.89365 6.0216 6.82465 6.0216C6.3694 6.0216 5.99988 6.39112 5.99988 6.8466V15.4572C5.99988 15.6292 6.11695 15.7794 6.28383 15.821L23.5339 20.1334C23.5638 20.1409 23.5942 20.1448 23.625 20.1448ZM10.3124 8.02515V12.5251C10.3124 12.7321 10.1445 12.9 9.93745 12.9H7.12495C6.91773 12.9 6.7498 12.7321 6.7498 12.5251V8.02515C6.7498 7.81815 6.91773 7.65022 7.12495 7.65022H9.93738C10.1444 7.65022 10.3124 7.81815 10.3124 8.02515ZM14.6247 9.1266V13.6266C14.6247 13.8336 14.4568 14.0015 14.2498 14.0015H11.4373C11.2303 14.0015 11.0624 13.8336 11.0624 13.6266V9.1266C11.0624 8.9196 11.2303 8.75145 11.4373 8.75145H14.2498C14.4568 8.75145 14.6247 8.9196 14.6247 9.1266ZM18.9374 10.225V14.725C18.9374 14.932 18.7695 15.0999 18.5623 15.0999H15.7497C15.5427 15.0999 15.3747 14.932 15.3747 14.725V10.225C15.3747 10.018 15.5427 9.84982 15.7497 9.84982H18.5623C18.7695 9.84982 18.9374 10.018 18.9374 10.225ZM23.25 11.3251V15.8248C23.25 16.0318 23.082 16.2 22.875 16.2H20.0625C19.8554 16.2 19.6873 16.0318 19.6873 15.8248V11.3251C19.6873 11.1181 19.8554 10.95 20.0625 10.95H22.875C23.082 10.95 23.25 11.1182 23.25 11.3251Z" fill="white"/><path d="M6 18.7267L23.9999 23.2267V24.0001L6 19.5001V18.7267Z" fill="white"/><path d="M19.8216 20.3985C19.8216 20.9987 19.3343 21.4861 18.7341 21.4861C18.1337 21.4861 17.6465 20.9987 17.6465 20.3985C17.6465 19.7981 18.1337 19.311 18.7341 19.311C19.3342 19.311 19.8216 19.7981 19.8216 20.3985Z" fill="white"/><path d="M22.5268 21.1313C22.5268 21.7318 22.0395 22.2188 21.4393 22.2188C20.8389 22.2188 20.3518 21.7318 20.3518 21.1313C20.3518 20.5311 20.8389 20.0441 21.4393 20.0441C22.0395 20.044 22.5268 20.5311 22.5268 21.1313Z" fill="white"/><path d="M12.3819 18.5379C12.3819 19.1383 11.8949 19.6255 11.2943 19.6255C10.6942 19.6255 10.2069 19.1384 10.2069 18.5379C10.2069 17.9377 10.6943 17.4503 11.2943 17.4503C11.8949 17.4503 12.3819 17.9377 12.3819 18.5379Z" fill="white"/><path d="M9.62024 17.8612C9.62024 18.4616 9.13319 18.949 8.53274 18.949C7.93251 18.949 7.44531 18.4617 7.44531 17.8612C7.44531 17.2612 7.93259 16.7739 8.53274 16.7739C9.13326 16.7739 9.62024 17.2612 9.62024 17.8612Z" fill="white"/></svg>

<svg class="color-immutable" width="30" height="30" viewBox="0 0 30 30" fill="none" xmlns="http://www.w3.org/2000/svg"><g clip-path="url(#a)"><path d="M30 0H0v30h30V0Z" fill="#2D327D"/><path d="M25.5 3c.825 0 1.5.675 1.5 1.5v21c0 .825-.675 1.5-1.5 1.5h-21c-.825 0-1.5-.675-1.5-1.5v-21C3 3.675 3.675 3 4.5 3h21Zm0-.375h-21A1.877 1.877 0 0 0 2.625 4.5v21c0 1.034.841 1.875 1.875 1.875h21a1.877 1.877 0 0 0 1.875-1.875v-21A1.877 1.877 0 0 0 25.5 2.625Z" fill="#fff"/><path d="M23.625 20.145A.375.375 0 0 0 24 19.77v-8.753a.825.825 0 0 0-.621-.8l-16.35-4.17a.825.825 0 0 0-1.029.8v8.61c0 .172.117.322.284.364l17.25 4.312c.03.008.06.012.091.012ZM10.312 8.025v4.5a.375.375 0 0 1-.375.375H7.125a.375.375 0 0 1-.375-.375v-4.5c0-.207.168-.375.375-.375h2.812c.207 0 .375.168.375.375Zm4.313 1.102v4.5a.375.375 0 0 1-.375.374h-2.813a.375.375 0 0 1-.375-.374v-4.5c0-.207.168-.376.375-.376h2.813c.207 0 .375.169.375.376Zm4.312 1.098v4.5a.375.375 0 0 1-.375.375H15.75a.375.375 0 0 1-.375-.375v-4.5c0-.207.168-.375.375-.375h2.812c.207 0 .375.168.375.375Zm4.313 1.1v4.5a.375.375 0 0 1-.375.375h-2.813a.375.375 0 0 1-.375-.375v-4.5c0-.207.168-.375.375-.375h2.813c.207 0 .375.168.375.375ZM6 18.727l18 4.5V24L6 19.5v-.773ZM19.822 20.398a1.088 1.088 0 1 1-2.177 0 1.088 1.088 0 0 1 2.177 0ZM22.527 21.131a1.088 1.088 0 1 1-2.176 0 1.088 1.088 0 0 1 2.176 0ZM12.382 18.538a1.088 1.088 0 1 1-2.176 0 1.088 1.088 0 0 1 2.176 0ZM9.62 17.861a1.088 1.088 0 1 1-2.176 0 1.088 1.088 0 0 1 2.176 0Z" fill="#fff"/></g><defs><clipPath id="a"><path fill="#fff" d="M0 0h30v30H0z"/></clipPath></defs></svg>
